X: 34017
T: Reel Circulaire
R: reel
M: 4/4
K: Eminor
|:B2B2 cB2g-|gggg agge|B2BB cBBc-|cccc dccA|
B2B2 cB2g-|gggg agge|B2BB cBBc-|1 cccc dccA:|2 cccc dccB||
cEAc EAcE|AcEc dEcE|cEGc EGcE|GcEc dccd|
B3f gf2a-|afff gffd|B2f2 gf2a-|afff gffB|
ccAc cAcc|AccA dAcA|cAAc AA^cA|AdAA eeeB|
B3f gf2a-|afff gffd|B3f gf2a-|abbb bbbf||

